ALTDEU
CUT[Fuchs im Loche]
REG[Europa, Mitteleuropa, Deutschland]
KEY[A0504  08  G 4/4]
MEL[5_  34321_5_  34321_
    5_  6_5_4_3_  2_2_2_0_
    2_22-7_-5_  5_553_
    5_  3_1_212-7  1__0_ //] >>
FCT[Romanze, Ballade, Lied, Kinderlied]
CMT[Hainhofers Lautenbuch 1603.]
